public/_brand/React Router Brand Assets/React Router Logo/Light.svg

<svg width="602" height="360" fill="none" xmlns="http://www.w3.org/2000/svg"><path d="M481.36 180c0 16.572-6.721 31.572-17.603 42.42C452.875 233.28 437.845 240 421.24 240c-16.605 0-31.635 6.708-42.505 17.568-10.882 10.86-17.615 25.86-17.615 42.432 0 16.572-6.721 31.572-17.603 42.42C332.635 353.28 317.605 360 301 360c-16.605 0-31.635-6.72-42.505-17.58-10.882-10.848-17.615-25.848-17.615-42.42 0-16.572 6.733-31.572 17.615-42.432C269.365 246.708 284.395 240 301 240c16.605 0 31.635-6.72 42.517-17.58 10.882-10.848 17.603-25.848 17.603-42.42 0-33.144-26.91-60-60.12-60-16.605 0-31.635-6.72-42.505-17.58C247.613 91.572 240.88 76.572 240.88 60c0-16.572 6.733-31.572 17.615-42.432C269.365 6.708 284.395 0 301 0c33.21 0 60.12 26.856 60.12 60 0 16.572 6.733 31.572 17.615 42.42 10.87 10.86 25.9 17.58 42.505 17.58 33.21 0 60.12 26.856 60.12 60Z" fill="#F44250"/><path d="M240.88 180c0-33.138-26.916-60-60.12-60-33.203 0-60.12 26.862-60.12 60 0 33.137 26.917 60 60.12 60 33.204 0 60.12-26.863 60.12-60ZM120.64 300c0-33.137-26.917-60-60.12-60C27.317 240 .4 266.863.4 300c0 33.138 26.917 60 60.12 60 33.203 0 60.12-26.862 60.12-60Zm480.96 0c0-33.137-26.917-60-60.12-60-33.203 0-60.12 26.863-60.12 60 0 33.138 26.917 60 60.12 60 33.203 0 60.12-26.862 60.12-60Z" fill="#121212"/></svg>

<svg width="602" height="360" viewBox="0 0 602 360" fill="none" xmlns="http://www.w3.org/2000/svg">
<path d="M481.36 180C481.36 196.572 474.639 211.572 463.757 222.42C452.875 233.28 437.845 240 421.24 240C404.635 240 389.605 246.708 378.735 257.568C367.853 268.428 361.12 283.428 361.12 300C361.12 316.572 354.399 331.572 343.517 342.42C332.635 353.28 317.605 360 301 360C284.395 360 269.365 353.28 258.495 342.42C247.613 331.572 240.88 316.572 240.88 300C240.88 283.428 247.613 268.428 258.495 257.568C269.365 246.708 284.395 240 301 240C317.605 240 332.635 233.28 343.517 222.42C354.399 211.572 361.12 196.572 361.12 180C361.12 146.856 334.21 120 301 120C284.395 120 269.365 113.28 258.495 102.42C247.613 91.572 240.88 76.572 240.88 60C240.88 43.428 247.613 28.428 258.495 17.568C269.365 6.708 284.395 0 301 0C334.21 0 361.12 26.856 361.12 60C361.12 76.572 367.853 91.572 378.735 102.42C389.605 113.28 404.635 120 421.24 120C454.45 120 481.36 146.856 481.36 180Z" fill="#F44250"/>
<path d="M240.88 180C240.88 146.862 213.964 120 180.76 120C147.557 120 120.64 146.862 120.64 180C120.64 213.137 147.557 240 180.76 240C213.964 240 240.88 213.137 240.88 180Z" fill="#121212"/>
<path d="M120.64 300C120.64 266.863 93.7234 240 60.52 240C27.3167 240 0.400024 266.863 0.400024 300C0.400024 333.138 27.3167 360 60.52 360C93.7234 360 120.64 333.138 120.64 300Z" fill="#121212"/>
<path d="M601.6 300C601.6 266.863 574.683 240 541.48 240C508.277 240 481.36 266.863 481.36 300C481.36 333.138 508.277 360 541.48 360C574.683 360 601.6 333.138 601.6 300Z" fill="#121212"/>
</svg>
